itou/static/img/no_email.svg

<?xml version="1.0" encoding="UTF-8"?>
<svg width="228px" height="205px" viewBox="0 0 228 205" version="1.1" xmlns="http://www.w3.org/2000/svg" xmlns:xlink="http://www.w3.org/1999/xlink">
    <title>undraw_mobile_inbox_3h46</title>
    <g id="🏠-Page-d'accueil" stroke="none" stroke-width="1" fill="none" fill-rule="evenodd">
        <g id="Connexion-Candidat---Modal-Je-n'ai-pas-d'adresse-e-mail" transform="translate(-423.000000, -360.000000)" fill-rule="nonzero">
            <g id="modal/!modal" transform="translate(394.000000, 309.000000)">
                <g id="undraw_mobile_inbox_3h46" transform="translate(29.000000, 51.000000)">
                    <path d="M201.729835,155.695751 C198.189817,166.213989 193.275321,176.606763 186.566647,186.347241 C186.418129,186.566772 186.267106,186.781557 186.115,187 L166,180.753812 C166.087231,180.542982 166.18212,180.306799 166.283577,180.048867 C172.349228,164.839187 208.836023,72.1351008 204.507713,53 C204.91714,54.5704048 218.300835,106.528615 201.729835,155.695751 Z" id="Path" fill="#E6E6E6"></path>
                    <path d="M191.21633,189.42741 C190.968918,189.621378 190.714194,189.813088 190.45692,190 L175,185.232638 C175.181226,185.05859 175.391986,184.853318 175.634838,184.621627 C179.600589,180.769899 191.380608,169.231035 202.773347,157.016014 C215.016658,143.889404 226.815624,129.984342 228,124 C227.781006,125.364552 220.849715,166.883532 191.21633,189.42741 Z" id="Path" fill="#E6E6E6"></path>
                    <ellipse id="Oval" fill="#E6E6E6" cx="28" cy="202" rx="28" ry="3"></ellipse>
                    <path d="M47.217154,142.988042 L47.217154,142.988042 C46.1966991,142.901706 45.2636354,142.353474 44.6637571,141.487766 C44.0638788,140.622058 43.8573392,139.525684 44.0985464,138.487457 L46.5350667,128 L51,128 L51,139.347892 C51,140.367788 50.5912893,141.341221 49.8727656,142.032641 C49.154242,142.724061 48.1913734,143.070469 47.217154,142.988042 L47.217154,142.988042 Z" id="Path" fill="#A0616A"></path>
                    <path d="M43,74.6437178 C38.2700877,75.5215158 33.470289,75.9754113 28.6585337,76 C24.0903412,76.0054326 19.5270298,75.7033601 15,75.0957872 C15,75.0957872 15.6829268,49.553867 28.6585366,50.0059307 C42.5659788,50.4904671 43,74.6437178 43,74.6437178 Z" id="Path" fill="#2F2E41"></path>
                    <circle id="Oval" fill="#2F2E41" cx="30" cy="50" r="4"></circle>
                    <polygon id="Path" fill="#A0616A" points="37.0227338 193.338547 42.7044604 194 46 151 36 153.866667"></polygon>
                    <polygon id="Path" fill="#A0616A" points="19.0909353 191.720824 13.5225899 194 10 152 20 154.821693"></polygon>
                    <ellipse id="Oval" fill="#A0616A" cx="29" cy="64.5" rx="8" ry="7.5"></ellipse>
                    <path d="M35.7338118,98 L23,98 L23,79.2553674 C26.220062,77.1587215 25.0842666,73.4187849 23,69.3210346 L34.3309356,69 C32.6329812,74.0390934 33.2246624,77.8124624 38,79.2730741 L35.7338118,98 Z" id="Path" fill="#A0616A"></path>
                    <path d="M48,157.318772 C41.642955,155.268035 36.9190907,157.678329 33.2610847,163 L29.1428583,146.830329 L23.0738904,160.159386 C17.8278005,154.358828 11.3240809,152.070965 4,152.074553 C4.9062462,134.102181 7.879994,120.042943 15.7044328,108.372755 C16.3999131,107.33544 16.6560558,103.868195 17.4384228,102.91003 L12.7675732,88.1475966 C13.1130618,85.6285549 14.6784258,83.4475956 16.943809,82.3290135 L23.9408964,78.874036 L29.7931156,88.7069405 L34.9950857,78 L43.7635728,80.8899009 C45.2631206,81.3841185 46.2904113,82.7780719 46.3268792,84.3681079 L39.3300608,111.431878 C37.9848144,123.296462 42.1016137,139.585994 48,157.318772 Z" id="Path" fill="#2F2E41"></path>
                    <path d="M51,131 L44.4042544,130.126638 L41,105.017467 L41.8510636,81 L43.9190338,81.4014877 C47.3103238,82.0598935 49.8008023,85.0473626 49.9095778,88.5874826 L51,131 Z" id="Path" fill="#2F2E41"></path>
                    <path d="M3.81950258,142.910516 L3.81950258,142.910516 C4.85541421,143.1411 5.94368041,142.92104 6.79762178,142.308305 C7.65156316,141.69557 8.18554961,140.751603 8.25891434,139.72507 L9,129.355753 L4.58100602,128 L1.16980893,138.41953 C0.863229392,139.355987 0.975122003,140.373884 1.47841126,141.226912 C1.98170052,142.079941 2.8305302,142.69038 3.81950258,142.910516 L3.81950258,142.910516 Z" id="Path" fill="#A0616A"></path>
                    <path d="M9.41935595,131 L4,129.678899 L11.3914867,88.4364148 C11.8458128,85.9013963 13.6898229,83.8137921 16.193548,83 L16.193548,83 L18,100.614677 L9.41935595,131 Z" id="Path" fill="#2F2E41"></path>
                    <path d="M22.7185271,61 L35.4652071,61 L35.9273763,58.4259719 C36.1705932,57.0715625 35.7961017,55.6793216 34.9062118,54.6296062 C34.016322,53.5798908 32.7040393,52.9824102 31.3278764,53.0003947 L26.5520827,53.0624176 C25.1325255,53.0808762 23.800573,53.7519814 22.9411445,54.8817913 C22.0817161,56.0116011 21.7905918,57.4742024 22.1519034,58.8469198 L22.7185271,61 Z" id="Path" fill="#2F2E41"></path>
                    <path d="M16.6678806,203 L16.6678806,203 C14.7090873,203 12.9940035,201.695328 12.484771,199.817892 L12.0978219,198.391294 C12.0061708,198.053403 11.978589,197.701547 12.0164817,197.353652 L12.7527118,190.593948 C14.1566063,188.866437 16.1979314,188.449927 19.1012084,189.806262 L20.8953122,197.76058 C21.1826476,199.03451 20.8713735,200.369023 20.0492232,201.387985 C19.2270729,202.406947 17.9830852,203 16.6678806,203 L16.6678806,203 Z" id="Path" fill="#2F2E41"></path>
                    <path d="M40.6678834,203 L40.6678834,203 C38.7090891,203 36.9940038,201.695329 36.484771,199.817892 L36.0978219,198.391294 C36.0061708,198.053403 35.978589,197.701547 36.0164817,197.353652 L36.7527118,190.593948 C38.1566063,188.866437 40.1979314,188.449927 43.1012084,189.806262 L44.8953122,197.76058 C45.1826475,199.034509 44.8713737,200.369022 44.0492241,201.387984 C43.2270744,202.406945 41.9830876,203 40.6678834,203 L40.6678834,203 Z" id="Path" fill="#2F2E41"></path>
                    <circle id="Oval" fill="#E6E6E6" cx="30.5" cy="98.5" r="1.5"></circle>
                    <circle id="Oval" fill="#E6E6E6" cx="30.5" cy="106.5" r="1.5"></circle>
                    <circle id="Oval" fill="#E6E6E6" cx="30.5" cy="114.5" r="1.5"></circle>
                    <path d="M194,48.0023881 L192.875683,48.0023881 L192.875683,17.5972211 C192.875683,7.87854425 184.897208,0 175.05526,0 L109.820423,0 C99.9784753,0 92,7.87854425 92,17.5972211 L92,184.402779 C92,194.121456 99.9784753,202 109.820423,202 L175.054979,202 C184.896927,202 192.875402,194.121456 192.875402,184.402779 L192.875402,69.6453047 L194,69.6453047 L194,48.0023881 Z" id="bcf9023f-ac5b-481c-aaa4-352627f2cc6c" fill="#3F3D56"></path>
                    <path d="M175.717772,3 L167.217699,3 C168.011905,4.9468701 167.785017,7.16148892 166.612551,8.90675199 C165.440086,10.6520151 163.475938,11.6988422 161.373846,11.6988117 L124.068642,11.6988117 C121.966822,11.6986343 120.002994,10.6518816 118.83064,8.90687036 C117.658286,7.16185914 117.431246,4.94757507 118.22507,3 L110.284748,3 C102.947784,3 97,8.95041541 97,16.2895862 L97,16.2895862 L97,184.711256 C97,192.050427 102.947784,198 110.284748,198 L175.715252,198 C183.052216,198 189,192.050427 189,184.711256 L189,184.711239 L189,184.711239 L189,16.2887442 C189,8.94957343 183.052216,3 175.715252,3 L175.717777,3 L175.717772,3 Z" id="f7950315-d447-41b3-b140-1076b53a001f" fill="#FFFFFF"></path>
                    <circle id="f890d8c3-e731-49cb-a2e5-5c59e9f60352" fill="#E6E6E6" cx="143.5" cy="176.5" r="7.5"></circle>
                    <g id="a1a6c59b-3717-4dad-b370-97c9e621082a" transform="translate(102.000000, 92.000000)">
                        <rect id="aadecade-068c-4f25-a9ef-29b7b9ecc005" fill="#E6E6E6" x="0.10615625" y="0.118975862" width="78.8606528" height="14.679569"></rect>
                        <polygon id="be47b05f-620a-4a83-9c0d-c2bf8bc76fef" fill="#FFFFFF" points="1.78738323 13.2136991 77.2858728 13.2136991 77.2858728 1.70507845 1.78738323 1.70507845"></polygon>
                        <path d="M8.3964958,2.97879828 C10.9650897,2.97879828 13.0473465,4.94199105 13.0473465,7.36371207 C13.0473465,9.78543309 10.9650897,11.7486259 8.3964958,11.7486259 C5.82790189,11.7486259 3.7456451,9.78543309 3.7456451,7.36371207 C3.7456451,4.94199105 5.82790189,2.97879828 8.3964958,2.97879828 L8.3964958,2.97879828 Z" id="a28d2100-c4d0-4925-85de-1e7d52571659" fill="#007BFF"></path>
                        <rect id="bf3352be-1ca2-4e23-bbaf-f2f5ef64af93" fill="#E6E6E6" x="19.5179457" y="5.64776638" width="45.9009229" height="1"></rect>
                        <rect id="bb396d43-890f-415a-a911-0c113deb0c88" fill="#E6E6E6" x="19.5179457" y="8.12611293" width="45.9009229" height="1"></rect>
                    </g>
                    <g id="a76a8676-f787-4aac-bc26-4d28e625d812" transform="translate(102.000000, 115.000000)">
                        <rect id="a3fed62c-a480-4fda-a6ab-9c7719a11d03" fill="#E6E6E6" x="0.10615625" y="0.118975862" width="78.8606528" height="14.679569"></rect>
                        <polygon id="b2013604-1388-480a-bf39-bc8d6d6f2c30" fill="#FFFFFF" points="1.78738323 13.2136991 77.2858728 13.2136991 77.2858728 1.70507845 1.78738323 1.70507845"></polygon>
                        <ellipse id="a10785fe-0480-48e0-a209-79d56eb9fb83" fill="#007BFF" cx="8.3964958" cy="7.36371207" rx="4.65085069" ry="4.38491379"></ellipse>
                        <rect id="e4ba10f0-0456-4e2c-9d9e-10f625ff54d2" fill="#E6E6E6" x="19.5179457" y="5.64776638" width="45.9009229" height="1"></rect>
                        <rect id="a086a789-ddcc-4a0c-b196-f7973999ed5b" fill="#E6E6E6" x="19.5179457" y="8.12611293" width="45.9009229" height="1"></rect>
                    </g>
                    <g id="a5a5e7c6-2328-4bbd-a0bc-78368cb001e7" transform="translate(102.000000, 139.000000)">
                        <rect id="be3c08ee-83a5-46f6-b550-c65a1a75b35b" fill="#E6E6E6" x="0.10615625" y="0.118975862" width="78.8606528" height="14.679569"></rect>
                        <polygon id="beee7471-5a7b-446e-b565-9b3273ba023a" fill="#FFFFFF" points="1.78738323 13.2136991 77.2858728 13.2136991 77.2858728 1.70507845 1.78738323 1.70507845"></polygon>
                        <ellipse id="f8684faf-2b28-4db0-a7a9-e69102a88591" fill="#007BFF" cx="8.3964958" cy="7.36371207" rx="4.65085069" ry="4.38491379"></ellipse>
                        <rect id="e7cf9a62-74c8-4968-991d-f63bde6d8d74" fill="#E6E6E6" x="19.5179457" y="5.64776638" width="45.9009229" height="1"></rect>
                        <rect id="b57b1a7e-a030-4cfd-a852-c296d4f42a3d" fill="#E6E6E6" x="19.5179457" y="8.12611293" width="45.9009229" height="1"></rect>
                    </g>
                    <circle id="Oval" fill="#007BFF" cx="142" cy="55" r="22"></circle>
                    <path d="M150.874995,45 L132.124993,45 C130.399913,45.0017847 129.001946,46.2828343 129,47.8636371 L129,60.1363522 C129.001933,61.7171616 130.399906,62.9982212 132.124993,63 L150.874995,63 C152.600086,62.9982256 153.998065,61.7171652 154,60.1363522 L154,47.8636371 C153.998052,46.2828307 152.600079,45.0017803 150.874995,45 L150.874995,45 Z M150.874995,46.6363655 C150.986933,46.6367678 151.09837,46.6500884 151.206675,46.6760128 L141.502171,53.7699178 L131.854404,46.6615791 C131.943433,46.6447878 132.034095,46.6363655 132.12499,46.6363655 L150.874995,46.6363655 Z M150.874995,61.3636344 L132.124993,61.3636344 C131.385676,61.3628558 130.786554,60.813837 130.785711,60.1363522 L130.785711,47.9738473 L140.940549,55.455831 C141.266275,55.695794 141.730066,55.6966026 142.056786,55.4577773 L152.214298,48.0326627 L152.214298,60.1363522 C152.213453,60.8138437 151.61432,61.3628647 150.874995,61.3636344 L150.874995,61.3636344 Z" id="Shape" fill="#FFFFFF"></path>
                </g>
            </g>
        </g>
    </g>
</svg>

<svg width="228" height="205" xmlns="http://www.w3.org/2000/svg"><g fill-rule="nonzero" fill="none"><path d="M201.73 155.7a122.96 122.96 0 0 1-15.16 30.65l-.45.65-20.12-6.25.28-.7c6.07-15.21 42.56-107.91 38.23-127.05.4 1.57 13.8 53.53-2.78 102.7Z" fill="#E6E6E6"/><path d="M191.22 189.43c-.25.2-.5.38-.76.57L175 185.23l.63-.6a840.17 840.17 0 0 0 27.14-27.61c12.25-13.13 24.05-27.04 25.23-33.02-.22 1.36-7.15 42.88-36.78 65.43Z" fill="#E6E6E6"/><ellipse fill="#E6E6E6" cx="28" cy="202" rx="28" ry="3"/><path d="M47.22 142.99a3.47 3.47 0 0 1-2.56-1.5c-.6-.87-.8-1.96-.56-3L46.54 128H51v11.35c0 1.02-.4 2-1.13 2.68a3.41 3.41 0 0 1-2.65.96Z" fill="#A0616A"/><path d="M43 74.64A80.86 80.86 0 0 1 28.66 76c-4.57 0-9.13-.3-13.66-.9 0 0 .68-25.55 13.66-25.1C42.56 50.5 43 74.65 43 74.65Z" fill="#2F2E41"/><circle fill="#2F2E41" cx="30" cy="50" r="4"/><path fill="#A0616A" d="m37.02 193.34 5.68.66 3.3-43-10 2.87zM19.09 191.72 13.52 194 10 152l10 2.82z"/><ellipse fill="#A0616A" cx="29" cy="64.5" rx="8" ry="7.5"/><path d="M35.73 98H23V79.26c3.22-2.1 2.08-5.84 0-9.94L34.33 69c-1.7 5.04-1.1 8.81 3.67 10.27L35.73 98Z" fill="#A0616A"/><path d="M48 157.32c-6.36-2.05-11.08.36-14.74 5.68l-4.12-16.17-6.07 13.33c-5.24-5.8-11.75-8.09-19.07-8.09.9-17.97 3.88-32.03 11.7-43.7.7-1.03.96-4.5 1.74-5.46l-4.67-14.76a7.64 7.64 0 0 1 4.17-5.82l7-3.46 5.85 9.84L35 78l8.77 2.89c1.5.5 2.53 1.89 2.57 3.48l-7 27.06C37.98 123.3 42.1 139.6 48 157.32Z" fill="#2F2E41"/><path d="m51 131-6.6-.87-3.4-25.11.85-24.02 2.07.4a7.5 7.5 0 0 1 5.99 7.19L51 131Z" fill="#2F2E41"/><path d="M3.82 142.91c1.04.23 2.12.01 2.98-.6a3.49 3.49 0 0 0 1.46-2.58L9 129.36 4.58 128l-3.41 10.42c-.3.94-.2 1.95.3 2.8.51.86 1.36 1.47 2.35 1.7Z" fill="#A0616A"/><path d="M9.42 131 4 129.68l7.4-41.24A7.06 7.06 0 0 1 16.2 83l1.8 17.61L9.42 131ZM22.72 61h12.75l.46-2.57a4.61 4.61 0 0 0-4.6-5.43l-4.78.06a4.61 4.61 0 0 0-4.4 5.79l.57 2.15ZM16.67 203a4.33 4.33 0 0 1-4.19-3.18l-.38-1.43a2.8 2.8 0 0 1-.08-1.04l.73-6.76c1.4-1.72 3.45-2.14 6.35-.78l1.8 7.95a4.28 4.28 0 0 1-.85 3.63 4.34 4.34 0 0 1-3.38 1.61ZM40.67 203a4.33 4.33 0 0 1-4.19-3.18l-.38-1.43a2.8 2.8 0 0 1-.08-1.04l.73-6.76c1.4-1.72 3.45-2.14 6.35-.78l1.8 7.95a4.28 4.28 0 0 1-.85 3.63 4.34 4.34 0 0 1-3.38 1.61Z" fill="#2F2E41"/><circle fill="#E6E6E6" cx="30.5" cy="98.5" r="1.5"/><circle fill="#E6E6E6" cx="30.5" cy="106.5" r="1.5"/><circle fill="#E6E6E6" cx="30.5" cy="114.5" r="1.5"/><path d="M194 48h-1.12V17.6c0-9.72-7.98-17.6-17.82-17.6h-65.24A17.71 17.71 0 0 0 92 17.6v166.8c0 9.72 7.98 17.6 17.82 17.6h65.23c9.85 0 17.83-7.88 17.83-17.6V69.65H194V48Z" fill="#3F3D56"/><path d="M175.72 3h-8.5a6.32 6.32 0 0 1-5.85 8.7h-37.3a6.31 6.31 0 0 1-5.84-8.7h-7.95A13.29 13.29 0 0 0 97 16.29v168.42c0 7.34 5.95 13.29 13.28 13.29h65.44c7.33 0 13.28-5.95 13.28-13.29V16.3C189 8.95 183.05 3 175.72 3Z" fill="#FFF"/><circle fill="#E6E6E6" cx="143.5" cy="176.5" r="7.5"/><path fill="#E6E6E6" d="M102.11 92.12h78.86v14.68h-78.86z"/><path fill="#FFF" d="M103.79 105.21h75.5v-11.5h-75.5z"/><path d="M110.4 94.98c2.57 0 4.65 1.96 4.65 4.38 0 2.43-2.08 4.39-4.65 4.39-2.57 0-4.65-1.96-4.65-4.39 0-2.42 2.08-4.38 4.65-4.38Z" fill="#007BFF"/><path fill="#E6E6E6" d="M121.52 97.65h45.9v1h-45.9zM121.52 100.13h45.9v1h-45.9z"/><g transform="translate(102 115)"><path fill="#E6E6E6" d="M.11.12h78.86V14.8H.11z"/><path fill="#FFF" d="M1.79 13.21h75.5V1.71H1.79z"/><ellipse fill="#007BFF" cx="8.4" cy="7.36" rx="4.65" ry="4.38"/><path fill="#E6E6E6" d="M19.52 5.65h45.9v1h-45.9zM19.52 8.13h45.9v1h-45.9z"/></g><g transform="translate(102 139)"><path fill="#E6E6E6" d="M.11.12h78.86V14.8H.11z"/><path fill="#FFF" d="M1.79 13.21h75.5V1.71H1.79z"/><ellipse fill="#007BFF" cx="8.4" cy="7.36" rx="4.65" ry="4.38"/><path fill="#E6E6E6" d="M19.52 5.65h45.9v1h-45.9zM19.52 8.13h45.9v1h-45.9z"/></g><circle fill="#007BFF" cx="142" cy="55" r="22"/><path d="M150.87 45h-18.75c-1.72 0-3.12 1.28-3.12 2.86v12.28c0 1.58 1.4 2.86 3.12 2.86h18.75c1.73 0 3.13-1.28 3.13-2.86V47.86c0-1.58-1.4-2.86-3.13-2.86Zm0 1.64c.12 0 .23.01.34.04l-9.7 7.09-9.66-7.1c.1-.03.18-.03.27-.03h18.75Zm0 14.72h-18.75c-.73 0-1.33-.55-1.33-1.22V47.97l10.15 7.49c.33.24.79.24 1.12 0l10.15-7.43v12.1c0 .68-.6 1.23-1.34 1.23Z" fill="#FFF"/></g></svg>
